packages/icons/svgs/solid/Source=filter.svg

<svg xmlns="http://www.w3.org/2000/svg" width="12" height="12" viewBox="0 0 12 12"><g clip-path="url(#a)"><path d="M11.25 0H.75C.3 0 0 .3 0 .75v1.5c0 .225.075.45.3.6l4.2 3.525v4.875c0 .3.15.6.45.675.075.075.225.075.3.075a.68.68 0 0 0 .525-.225l1.5-1.5A.68.68 0 0 0 7.5 9.75V6.375l4.2-3.525c.225-.15.3-.375.3-.6V.75c0-.45-.3-.75-.75-.75Z"/></g><defs><clipPath id="a"><path fill="#fff" d="M0 0h12v12H0z"/></clipPath></defs></svg>

<svg width="12" height="12" viewBox="0 0 12 12" fill="none" xmlns="http://www.w3.org/2000/svg">
<g clip-path="url(#clip0_1607_1041)">
<path d="M11.25 0H0.75C0.3 0 0 0.3 0 0.75V2.25C0 2.475 0.075 2.7 0.3 2.85L4.5 6.375V11.25C4.5 11.55 4.65 11.85 4.95 11.925C5.025 12 5.175 12 5.25 12C5.475 12 5.625 11.925 5.775 11.775L7.275 10.275C7.425 10.125 7.5 9.975 7.5 9.75V6.375L11.7 2.85C11.925 2.7 12 2.475 12 2.25V0.75C12 0.3 11.7 0 11.25 0Z" fill="black"/>
</g>
<defs>
<clipPath id="clip0_1607_1041">
<rect width="12" height="12" fill="white"/>
</clipPath>
</defs>
</svg>
